img/icons/analytics-icon.svg

<svg xmlns="http://www.w3.org/2000/svg" width="50" height="50" viewBox="0 0 50 50" xmlns:xlink="http://www.w3.org/1999/xlink">
  <defs>
    <path id="b" d="M45.9999972,15.999999 C45.9999972,18.1999997 44.1999979,19.9999988 41.9999975,19.9999988 C41.6399967,19.9999988 41.2999967,19.9599979 40.9799969,19.8599994 L33.8599986,26.9599992 C33.959997,27.279999 33.999998,27.6399995 33.999998,27.9999983 C33.999998,30.1999988 32.1999987,31.9999981 29.9999982,31.9999981 C27.7999975,31.9999981 25.9999984,30.1999988 25.9999984,27.9999983 C25.9999984,27.6399975 26.0399992,27.279999 26.1399976,26.9599974 L21.0399977,21.8599973 C20.719998,21.9599977 20.3599974,21.9999967 19.9999988,21.9999967 C19.6400001,21.9999967 19.2799995,21.9599957 18.9599979,21.8599973 L9.85999811,30.9799975 C9.95999848,31.2999973 9.99999844,31.6399973 9.99999844,31.9999981 C9.99999844,34.1999985 8.19999835,35.9999978 5.99999868,35.9999978 C3.79999899,35.9999978 1.99999893,34.1999985 1.99999893,31.9999981 C1.99999893,29.7999974 3.79999899,27.9999983 5.99999868,27.9999983 C6.35999878,27.9999983 6.69999844,28.0399991 7.0199986,28.1399975 L16.1399984,19.0399979 C16.0399999,18.7199982 15.999999,18.3599995 15.999999,17.9999989 C15.999999,15.7999992 17.7999982,13.9999992 19.9999988,13.9999992 C22.1999993,13.9999992 23.9999986,15.7999992 23.9999986,17.9999989 C23.9999986,18.3599995 23.9599976,18.7199982 23.8599992,19.0399998 L28.9599991,24.1399998 C29.2799988,24.0399994 29.6399994,24.0000004 29.9999982,24.0000004 C30.3599968,24.0000004 30.7199974,24.0400014 31.0399989,24.1399998 L38.1399969,17.0199994 C38.0399985,16.6999998 37.9999977,16.3599996 37.9999977,15.999999 C37.9999977,13.7999994 39.7999968,11.9999993 41.9999975,11.9999993 C44.1999979,11.9999993 45.9999972,13.7999994 45.9999972,15.999999 L45.9999972,15.999999 Z"/>
    <filter id="a" width="200%" height="200%" x="-50%" y="-50%" filterUnits="objectBoundingBox">
      <feOffset dy="2" in="SourceAlpha" result="shadowOffsetOuter1"/>
      <feGaussianBlur stdDeviation="1" in="shadowOffsetOuter1" result="shadowBlurOuter1"/>
      <feColorMatrix values="0 0 0 0 0 0 0 0 0 0 0 0 0 0 0 0 0 0 0.1 0" in="shadowBlurOuter1"/>
    </filter>
  </defs>
  <g fill="none" fill-rule="evenodd" transform="translate(1 1)">
    <polygon stroke="#000000" stroke-opacity=".008" stroke-width=".5" points="0 0 48 0 48 48 0 48"/>
    <use fill="black" filter="url(#a)" xlink:href="#b"/>
    <use fill="#FFFFFF" xlink:href="#b"/>
  </g>
</svg>

<svg xmlns="http://www.w3.org/2000/svg" width="50" height="50" viewBox="0 0 50 50" xmlns:xlink="http://www.w3.org/1999/xlink"><defs><path id="b" d="M46 16c0 2.2-1.8 4-4 4-.36 0-.7-.04-1.02-.14l-7.12 7.1c.1.32.14.68.14 1.04 0 2.2-1.8 4-4 4s-4-1.8-4-4c0-.36.04-.72.14-1.04l-5.1-5.1c-.32.1-.68.14-1.04.14s-.72-.04-1.04-.14l-9.1 9.12c.1.32.14.66.14 1.02 0 2.2-1.8 4-4 4s-4-1.8-4-4 1.8-4 4-4c.36 0 .7.04 1.02.14l9.12-9.1c-.1-.32-.14-.68-.14-1.04 0-2.2 1.8-4 4-4s4 1.8 4 4c0 .36-.04.72-.14 1.04l5.1 5.1c.32-.1.68-.14 1.04-.14s.72.04 1.04.14l7.1-7.12A3.4 3.4 0 0 1 38 16c0-2.2 1.8-4 4-4s4 1.8 4 4z"/><filter id="a" width="200%" height="200%" x="-50%" y="-50%" filterUnits="objectBoundingBox"><feOffset dy="2" in="SourceAlpha" result="shadowOffsetOuter1"/><feGaussianBlur stdDeviation="1" in="shadowOffsetOuter1" result="shadowBlurOuter1"/><feColorMatrix values="0 0 0 0 0 0 0 0 0 0 0 0 0 0 0 0 0 0 0.1 0" in="shadowBlurOuter1"/></filter></defs><g fill="none" fill-rule="evenodd" transform="translate(1 1)"><path stroke="#000" stroke-opacity=".008" stroke-width=".5" d="M0 0h48v48H0z"/><use fill="#000" filter="url(#a)" xlink:href="#b"/><use fill="#FFF" xlink:href="#b"/></g></svg>
